assets/img/torus-login/facebook-wide.svg

<svg width="219" height="40" viewBox="0 0 219 40" fill="none" xmlns="http://www.w3.org/2000/svg">
<rect width="219" height="40" rx="2" fill="#55ADEE"/>
<rect width="219" height="40" rx="2" fill="#1877F2"/>
<path d="M53.1137 23.6191H57.6323V25H51.3843V15.0469H53.1137V23.6191ZM58.7068 21.2334C58.7068 20.5088 58.8503 19.8571 59.1375 19.2783C59.4246 18.695 59.8279 18.2484 60.3474 17.9385C60.8669 17.624 61.464 17.4668 62.1384 17.4668C63.1365 17.4668 63.9454 17.7881 64.5652 18.4307C65.1895 19.0732 65.5268 19.9255 65.5769 20.9873L65.5837 21.377C65.5837 22.1061 65.4425 22.7578 65.1599 23.332C64.8819 23.9062 64.4809 24.3506 63.9568 24.665C63.4373 24.9795 62.8357 25.1367 62.1521 25.1367C61.1085 25.1367 60.2722 24.7904 59.6433 24.0977C59.019 23.4004 58.7068 22.473 58.7068 21.3154V21.2334ZM60.3679 21.377C60.3679 22.138 60.5252 22.735 60.8396 23.168C61.1541 23.5964 61.5916 23.8105 62.1521 23.8105C62.7127 23.8105 63.1479 23.5918 63.4578 23.1543C63.7722 22.7168 63.9294 22.0765 63.9294 21.2334C63.9294 20.486 63.7677 19.8936 63.4441 19.4561C63.1251 19.0186 62.6899 18.7998 62.1384 18.7998C61.5961 18.7998 61.1655 19.0163 60.8464 19.4492C60.5274 19.8776 60.3679 20.5202 60.3679 21.377ZM66.918 21.2471C66.918 20.0986 67.1869 19.1826 67.7246 18.499C68.267 17.8109 68.9847 17.4668 69.878 17.4668C70.7211 17.4668 71.3841 17.7607 71.8672 18.3486L71.9424 17.6035H73.4395V24.7744C73.4395 25.7451 73.1364 26.5107 72.5303 27.0713C71.9287 27.6318 71.1153 27.9121 70.0899 27.9121C69.5476 27.9121 69.0166 27.7982 68.4971 27.5703C67.9821 27.347 67.5902 27.0531 67.3213 26.6885L68.1075 25.6904C68.6179 26.2965 69.2468 26.5996 69.9942 26.5996C70.5456 26.5996 70.9808 26.4492 71.2998 26.1484C71.6188 25.8522 71.7784 25.4147 71.7784 24.8359V24.3369C71.2998 24.8701 70.6618 25.1367 69.8643 25.1367C68.9984 25.1367 68.2897 24.7926 67.7383 24.1045C67.1914 23.4163 66.918 22.4639 66.918 21.2471ZM68.5723 21.3906C68.5723 22.1335 68.7227 22.7191 69.0235 23.1475C69.3288 23.5713 69.7504 23.7832 70.2881 23.7832C70.958 23.7832 71.4548 23.4961 71.7784 22.9219V19.668C71.4639 19.1074 70.9717 18.8271 70.3018 18.8271C69.7549 18.8271 69.3288 19.0436 69.0235 19.4766C68.7227 19.9095 68.5723 20.5475 68.5723 21.3906ZM77.139 25H75.4778V17.6035H77.139V25ZM75.3753 15.6826C75.3753 15.4274 75.4551 15.2155 75.6146 15.0469C75.7786 14.8783 76.0111 14.7939 76.3118 14.7939C76.6126 14.7939 76.845 14.8783 77.0091 15.0469C77.1732 15.2155 77.2552 15.4274 77.2552 15.6826C77.2552 15.9333 77.1732 16.1429 77.0091 16.3115C76.845 16.4756 76.6126 16.5576 76.3118 16.5576C76.0111 16.5576 75.7786 16.4756 75.6146 16.3115C75.4551 16.1429 75.3753 15.9333 75.3753 15.6826ZM80.7154 17.6035L80.7633 18.458C81.3102 17.7972 82.0279 17.4668 82.9166 17.4668C84.457 17.4668 85.2408 18.3486 85.2682 20.1123V25H83.607V20.208C83.607 19.7386 83.5045 19.3923 83.2994 19.1689C83.0989 18.9411 82.7685 18.8271 82.3082 18.8271C81.6383 18.8271 81.1393 19.1302 80.8111 19.7363V25H79.15V17.6035H80.7154ZM97.3908 22.71L98.5666 17.6035H100.187L98.1701 25H96.8029L95.2169 19.9209L93.6584 25H92.2912L90.2677 17.6035H91.8878L93.0841 22.6553L94.6017 17.6035H95.8527L97.3908 22.71ZM103.285 25H101.623V17.6035H103.285V25ZM101.521 15.6826C101.521 15.4274 101.601 15.2155 101.76 15.0469C101.924 14.8783 102.157 14.7939 102.457 14.7939C102.758 14.7939 102.991 14.8783 103.155 15.0469C103.319 15.2155 103.401 15.4274 103.401 15.6826C103.401 15.9333 103.319 16.1429 103.155 16.3115C102.991 16.4756 102.758 16.5576 102.457 16.5576C102.157 16.5576 101.924 16.4756 101.76 16.3115C101.601 16.1429 101.521 15.9333 101.521 15.6826ZM107.401 15.8057V17.6035H108.707V18.834H107.401V22.9629C107.401 23.2454 107.456 23.4505 107.565 23.5781C107.679 23.7012 107.88 23.7627 108.167 23.7627C108.358 23.7627 108.552 23.7399 108.748 23.6943V24.9795C108.37 25.0843 108.005 25.1367 107.654 25.1367C106.378 25.1367 105.74 24.4326 105.74 23.0244V18.834H104.523V17.6035H105.74V15.8057H107.401ZM111.839 18.4102C112.381 17.7812 113.067 17.4668 113.896 17.4668C115.473 17.4668 116.273 18.3669 116.296 20.167V25H114.635V20.2285C114.635 19.7181 114.523 19.3581 114.3 19.1484C114.081 18.9342 113.757 18.8271 113.329 18.8271C112.664 18.8271 112.167 19.1234 111.839 19.7158V25H110.178V14.5H111.839V18.4102ZM127.803 20.7822H123.797V25H122.068V15.0469H128.391V16.4414H123.797V19.4014H127.803V20.7822ZM134.012 25C133.939 24.8587 133.875 24.6286 133.82 24.3096C133.292 24.861 132.644 25.1367 131.879 25.1367C131.136 25.1367 130.53 24.9248 130.06 24.501C129.591 24.0771 129.356 23.5531 129.356 22.9287C129.356 22.1403 129.648 21.5365 130.231 21.1172C130.819 20.6934 131.658 20.4814 132.747 20.4814H133.765V19.9961C133.765 19.6133 133.658 19.3079 133.444 19.0801C133.23 18.8477 132.904 18.7314 132.467 18.7314C132.088 18.7314 131.778 18.8271 131.537 19.0186C131.295 19.2054 131.175 19.4447 131.175 19.7363H129.514C129.514 19.3307 129.648 18.9525 129.917 18.6016C130.186 18.2461 130.55 17.9681 131.011 17.7676C131.475 17.5671 131.993 17.4668 132.562 17.4668C133.428 17.4668 134.119 17.6855 134.634 18.123C135.149 18.556 135.413 19.1667 135.427 19.9551V23.291C135.427 23.9564 135.52 24.4873 135.707 24.8838V25H134.012ZM132.186 23.8037C132.514 23.8037 132.822 23.724 133.109 23.5645C133.401 23.4049 133.62 23.1908 133.765 22.9219V21.5273H132.87C132.255 21.5273 131.792 21.6344 131.482 21.8486C131.172 22.0628 131.017 22.3659 131.017 22.7578C131.017 23.0768 131.122 23.332 131.332 23.5234C131.546 23.7103 131.831 23.8037 132.186 23.8037ZM140.425 23.8105C140.84 23.8105 141.184 23.6898 141.457 23.4482C141.731 23.2067 141.876 22.9082 141.895 22.5527H143.46C143.442 23.013 143.298 23.4437 143.029 23.8447C142.761 24.2412 142.396 24.5557 141.936 24.7881C141.475 25.0205 140.979 25.1367 140.445 25.1367C139.411 25.1367 138.591 24.8018 137.984 24.1318C137.378 23.4619 137.075 22.5368 137.075 21.3564V21.1855C137.075 20.0599 137.376 19.1598 137.978 18.4854C138.579 17.8063 139.4 17.4668 140.439 17.4668C141.318 17.4668 142.034 17.7243 142.585 18.2393C143.141 18.7497 143.433 19.4219 143.46 20.2559H141.895C141.876 19.832 141.731 19.4834 141.457 19.21C141.188 18.9365 140.844 18.7998 140.425 18.7998C139.887 18.7998 139.472 18.9958 139.181 19.3877C138.889 19.7751 138.741 20.3652 138.736 21.1582V21.4248C138.736 22.2269 138.88 22.8262 139.167 23.2227C139.459 23.6146 139.878 23.8105 140.425 23.8105ZM148.192 25.1367C147.139 25.1367 146.285 24.8063 145.628 24.1455C144.977 23.4801 144.651 22.596 144.651 21.4932V21.2881C144.651 20.5498 144.792 19.8913 145.075 19.3125C145.362 18.7292 145.763 18.2757 146.278 17.9521C146.793 17.6286 147.367 17.4668 148 17.4668C149.008 17.4668 149.785 17.7881 150.331 18.4307C150.883 19.0732 151.159 19.9824 151.159 21.1582V21.8281H146.326C146.376 22.4388 146.579 22.9219 146.934 23.2773C147.294 23.6328 147.745 23.8105 148.287 23.8105C149.049 23.8105 149.668 23.5029 150.147 22.8877L151.042 23.7422C150.746 24.1842 150.35 24.5283 149.853 24.7744C149.361 25.016 148.807 25.1367 148.192 25.1367ZM147.994 18.7998C147.538 18.7998 147.169 18.9593 146.886 19.2783C146.608 19.5973 146.43 20.0417 146.353 20.6113H149.518V20.4883C149.482 19.9323 149.333 19.513 149.074 19.2305C148.814 18.9434 148.454 18.7998 147.994 18.7998ZM159.165 21.377C159.165 22.5254 158.907 23.4391 158.392 24.1182C157.882 24.7972 157.178 25.1367 156.28 25.1367C155.414 25.1367 154.74 24.8245 154.257 24.2002L154.174 25H152.671V14.5H154.332V18.3145C154.81 17.7493 155.455 17.4668 156.266 17.4668C157.169 17.4668 157.877 17.8018 158.392 18.4717C158.907 19.1416 159.165 20.0781 159.165 21.2812V21.377ZM157.504 21.2334C157.504 20.4313 157.362 19.8298 157.08 19.4287C156.797 19.0277 156.387 18.8271 155.849 18.8271C155.129 18.8271 154.623 19.1416 154.332 19.7705V22.8193C154.628 23.4619 155.138 23.7832 155.863 23.7832C156.382 23.7832 156.784 23.5895 157.066 23.2021C157.349 22.8148 157.494 22.2292 157.504 21.4453V21.2334ZM160.472 21.2334C160.472 20.5088 160.615 19.8571 160.902 19.2783C161.189 18.695 161.593 18.2484 162.112 17.9385C162.632 17.624 163.229 17.4668 163.903 17.4668C164.901 17.4668 165.71 17.7881 166.33 18.4307C166.954 19.0732 167.292 19.9255 167.342 20.9873L167.349 21.377C167.349 22.1061 167.207 22.7578 166.925 23.332C166.647 23.9062 166.246 24.3506 165.722 24.665C165.202 24.9795 164.601 25.1367 163.917 25.1367C162.873 25.1367 162.037 24.7904 161.408 24.0977C160.784 23.4004 160.472 22.473 160.472 21.3154V21.2334ZM162.133 21.377C162.133 22.138 162.29 22.735 162.604 23.168C162.919 23.5964 163.356 23.8105 163.917 23.8105C164.477 23.8105 164.913 23.5918 165.223 23.1543C165.537 22.7168 165.694 22.0765 165.694 21.2334C165.694 20.486 165.533 19.8936 165.209 19.4561C164.89 19.0186 164.455 18.7998 163.903 18.7998C163.361 18.7998 162.93 19.0163 162.611 19.4492C162.292 19.8776 162.133 20.5202 162.133 21.377ZM168.662 21.2334C168.662 20.5088 168.806 19.8571 169.093 19.2783C169.38 18.695 169.783 18.2484 170.303 17.9385C170.822 17.624 171.419 17.4668 172.094 17.4668C173.092 17.4668 173.901 17.7881 174.521 18.4307C175.145 19.0732 175.482 19.9255 175.532 20.9873L175.539 21.377C175.539 22.1061 175.398 22.7578 175.115 23.332C174.837 23.9062 174.436 24.3506 173.912 24.665C173.393 24.9795 172.791 25.1367 172.108 25.1367C171.064 25.1367 170.228 24.7904 169.599 24.0977C168.975 23.4004 168.662 22.473 168.662 21.3154V21.2334ZM170.323 21.377C170.323 22.138 170.481 22.735 170.795 23.168C171.11 23.5964 171.547 23.8105 172.108 23.8105C172.668 23.8105 173.103 23.5918 173.413 23.1543C173.728 22.7168 173.885 22.0765 173.885 21.2334C173.885 20.486 173.723 19.8936 173.4 19.4561C173.081 19.0186 172.645 18.7998 172.094 18.7998C171.552 18.7998 171.121 19.0163 170.802 19.4492C170.483 19.8776 170.323 20.5202 170.323 21.377ZM179.567 21.8281L178.829 22.5869V25H177.167V14.5H178.829V20.5566L179.348 19.9072L181.392 17.6035H183.388L180.64 20.6865L183.682 25H181.761L179.567 21.8281Z" fill="white"/>
<g clip-path="url(#clip0)">
<path d="M31 20.5C31 14.701 26.299 10 20.5 10C14.701 10 10 14.701 10 20.5C10 25.7408 13.8397 30.0847 18.8594 30.8724V23.5352H16.1934V20.5H18.8594V18.1867C18.8594 15.5552 20.427 14.1016 22.8254 14.1016C23.9738 14.1016 25.1758 14.3066 25.1758 14.3066V16.8906H23.8518C22.5475 16.8906 22.1406 17.7001 22.1406 18.5312V20.5H25.0527L24.5872 23.5352H22.1406V30.8724C27.1603 30.0847 31 25.7408 31 20.5Z" fill="white"/>
</g>
<defs>
<clipPath id="clip0">
<rect width="21" height="20.8724" fill="white" transform="translate(10 10)"/>
</clipPath>
</defs>
</svg>

<svg width="219" height="40" fill="none" xmlns="http://www.w3.org/2000/svg"><rect width="219" height="40" rx="2" fill="#55ADEE"/><rect width="219" height="40" rx="2" fill="#1877F2"/><path d="M53.114 23.62h4.518V25h-6.248v-9.953h1.73v8.572Zm5.593-2.387c0-.724.143-1.376.43-1.955a3.12 3.12 0 0 1 1.21-1.34c.52-.314 1.117-.471 1.791-.471.998 0 1.807.321 2.427.964.624.642.962 1.494 1.012 2.556l.007.39c0 .73-.142 1.38-.424 1.955a3.08 3.08 0 0 1-1.203 1.333c-.52.315-1.121.472-1.805.472-1.044 0-1.88-.347-2.509-1.04-.624-.697-.936-1.624-.936-2.782v-.082Zm1.66.144c0 .761.158 1.358.473 1.791.314.428.752.643 1.312.643s.996-.22 1.306-.657c.314-.437.471-1.078.471-1.92 0-.748-.161-1.34-.485-1.778-.319-.437-.754-.656-1.306-.656-.542 0-.972.216-1.292.65-.319.428-.478 1.07-.478 1.927Zm6.551-.13c0-1.148.269-2.064.807-2.748.542-.688 1.26-1.032 2.153-1.032.843 0 1.506.294 1.99.882l.074-.745h1.498v7.17c0 .971-.304 1.737-.91 2.297-.601.56-1.415.841-2.44.841a3.929 3.929 0 0 1-1.593-.342c-.515-.223-.907-.517-1.176-.881l.787-.999c.51.607 1.139.91 1.886.91.552 0 .987-.15 1.306-.452.319-.296.478-.733.478-1.312v-.5c-.478.534-1.116.8-1.914.8-.866 0-1.574-.343-2.126-1.031-.547-.689-.82-1.641-.82-2.858Zm1.654.144c0 .743.15 1.328.451 1.757.306.423.727.635 1.265.635.67 0 1.167-.287 1.49-.861v-3.254c-.314-.56-.806-.84-1.476-.84-.547 0-.973.216-1.279.649-.3.433-.45 1.07-.45 1.914ZM77.14 25h-1.661v-7.396h1.661V25Zm-1.764-9.317c0-.256.08-.467.24-.636.164-.169.396-.253.697-.253.3 0 .533.084.697.253.164.168.246.38.246.636 0 .25-.082.46-.246.628-.164.165-.396.247-.697.247-.3 0-.533-.082-.697-.247a.88.88 0 0 1-.24-.628Zm5.34 1.92.048.855c.547-.66 1.265-.991 2.154-.991 1.54 0 2.324.882 2.351 2.645V25h-1.661v-4.792c0-.47-.103-.816-.308-1.04-.2-.227-.53-.34-.99-.34-.67 0-1.17.302-1.498.908V25H79.15v-7.396h1.565Zm16.676 5.107 1.176-5.107h1.62L98.17 25h-1.367l-1.586-5.08L93.658 25h-1.367l-2.023-7.396h1.62l1.196 5.051 1.518-5.052h1.25l1.539 5.107Zm5.894 2.29h-1.662v-7.396h1.662V25Zm-1.764-9.317a.89.89 0 0 1 .239-.636c.164-.169.397-.253.697-.253.301 0 .534.084.698.253.164.168.246.38.246.636 0 .25-.082.46-.246.628-.164.165-.397.247-.698.247-.3 0-.533-.082-.697-.247a.882.882 0 0 1-.239-.628Zm5.88.123v1.798h1.306v1.23h-1.306v4.129c0 .282.055.488.164.615.114.123.315.185.602.185.191 0 .385-.023.581-.069v1.286a4.092 4.092 0 0 1-1.094.157c-1.276 0-1.914-.704-1.914-2.113v-4.19h-1.217v-1.23h1.217v-1.798h1.661Zm4.438 2.604a2.599 2.599 0 0 1 2.057-.943c1.577 0 2.377.9 2.4 2.7V25h-1.661v-4.771c0-.51-.112-.87-.335-1.08-.219-.215-.543-.322-.971-.322-.665 0-1.162.296-1.49.889V25h-1.661V14.5h1.661v3.91Zm15.964 2.372h-4.006V25h-1.729v-9.953h6.323v1.394h-4.594v2.96h4.006v1.381ZM134.012 25c-.073-.141-.137-.371-.192-.69a2.585 2.585 0 0 1-1.941.827c-.743 0-1.349-.212-1.819-.636a2.035 2.035 0 0 1-.704-1.572c0-.789.292-1.392.875-1.812.588-.424 1.427-.636 2.516-.636h1.018v-.485c0-.383-.107-.688-.321-.916-.214-.232-.54-.349-.977-.349-.379 0-.689.096-.93.288a.867.867 0 0 0-.362.717h-1.661c0-.405.134-.784.403-1.134a2.674 2.674 0 0 1 1.094-.834c.464-.2.982-.301 1.551-.301.866 0 1.557.219 2.072.656.515.433.779 1.044.793 1.832v3.336c0 .665.093 1.196.28 1.593V25h-1.695Zm-1.826-1.196c.328 0 .636-.08.923-.24.292-.16.511-.373.656-.642v-1.395h-.895c-.615 0-1.078.107-1.388.322-.31.214-.465.517-.465.909 0 .319.105.574.315.765.214.187.499.28.854.28Zm8.239.007c.415 0 .759-.121 1.032-.363.274-.241.419-.54.438-.895h1.565c-.018.46-.162.89-.431 1.292a2.829 2.829 0 0 1-1.093.943 3.263 3.263 0 0 1-1.491.349c-1.034 0-1.854-.335-2.461-1.005-.606-.67-.909-1.595-.909-2.776v-.17c0-1.126.301-2.026.903-2.7.601-.68 1.422-1.02 2.461-1.02.879 0 1.595.258 2.146.773.556.51.848 1.183.875 2.017h-1.565c-.019-.424-.164-.773-.438-1.046-.269-.274-.613-.41-1.032-.41-.538 0-.953.196-1.244.588-.292.387-.44.977-.445 1.77v.267c0 .802.144 1.401.431 1.798.292.392.711.588 1.258.588Zm7.767 1.326c-1.053 0-1.907-.33-2.564-.992-.651-.665-.977-1.549-.977-2.652v-.205c0-.738.141-1.397.424-1.976a3.27 3.27 0 0 1 1.203-1.36 3.171 3.171 0 0 1 1.722-.485c1.008 0 1.785.321 2.331.964.552.642.828 1.551.828 2.727v.67h-4.833c.05.61.253 1.094.608 1.45.36.355.811.533 1.353.533.762 0 1.381-.308 1.86-.923l.895.854a3.007 3.007 0 0 1-1.189 1.032 3.72 3.72 0 0 1-1.661.363Zm-.198-6.337c-.456 0-.825.16-1.108.478-.278.32-.456.764-.533 1.333h3.165v-.123c-.036-.556-.185-.975-.444-1.258-.26-.287-.62-.43-1.08-.43Zm11.171 2.577c0 1.148-.258 2.062-.773 2.741-.51.68-1.214 1.019-2.112 1.019-.866 0-1.54-.313-2.023-.937l-.083.8h-1.503V14.5h1.661v3.814c.478-.565 1.123-.847 1.934-.847.903 0 1.611.335 2.126 1.005.515.67.773 1.606.773 2.81v.095Zm-1.661-.144c0-.802-.142-1.403-.424-1.804-.283-.401-.693-.602-1.231-.602-.72 0-1.226.315-1.517.943v3.05c.296.642.806.963 1.531.963.519 0 .921-.194 1.203-.58.283-.388.428-.974.438-1.758v-.212Zm2.968 0c0-.724.143-1.376.43-1.955a3.122 3.122 0 0 1 1.21-1.34c.52-.314 1.117-.471 1.791-.471.998 0 1.807.321 2.427.964.624.642.962 1.494 1.012 2.556l.007.39c0 .73-.142 1.38-.424 1.955a3.08 3.08 0 0 1-1.203 1.333c-.52.315-1.121.472-1.805.472-1.044 0-1.88-.347-2.509-1.04-.624-.697-.936-1.624-.936-2.782v-.082Zm1.661.144c0 .761.157 1.358.471 1.791.315.428.752.643 1.313.643.56 0 .996-.22 1.306-.657.314-.437.471-1.078.471-1.92 0-.748-.161-1.34-.485-1.778-.319-.437-.754-.656-1.306-.656a1.52 1.52 0 0 0-1.292.65c-.319.428-.478 1.07-.478 1.927Zm6.529-.144c0-.724.144-1.376.431-1.955.287-.583.69-1.03 1.21-1.34.519-.314 1.116-.471 1.791-.471.998 0 1.807.321 2.427.964.624.642.961 1.494 1.011 2.556l.007.39c0 .73-.141 1.38-.424 1.955a3.08 3.08 0 0 1-1.203 1.333c-.519.315-1.121.472-1.804.472-1.044 0-1.88-.347-2.509-1.04-.624-.697-.937-1.624-.937-2.782v-.082Zm1.661.144c0 .761.158 1.358.472 1.791.315.428.752.643 1.313.643.56 0 .995-.22 1.305-.657.315-.437.472-1.078.472-1.92 0-.748-.162-1.34-.485-1.778-.319-.437-.755-.656-1.306-.656a1.52 1.52 0 0 0-1.292.65c-.319.428-.479 1.07-.479 1.927Zm9.244.451-.738.759V25h-1.662V14.5h1.662v6.057l.519-.65 2.044-2.303h1.996l-2.748 3.082L183.682 25h-1.921l-2.194-3.172Z" fill="#fff"/><g clip-path="url(#a)"><path d="M31 20.5C31 14.701 26.299 10 20.5 10S10 14.701 10 20.5c0 5.24 3.84 9.585 8.86 10.372v-7.337h-2.667V20.5h2.666v-2.313c0-2.632 1.568-4.085 3.966-4.085 1.149 0 2.35.205 2.35.205v2.584h-1.323c-1.305 0-1.711.81-1.711 1.64V20.5h2.912l-.466 3.035h-2.446v7.337C27.16 30.085 31 25.741 31 20.5Z" fill="#fff"/></g><defs><clipPath id="a"><path fill="#fff" transform="translate(10 10)" d="M0 0h21v20.872H0z"/></clipPath></defs></svg>
